X:1
T:RVW2/1/34 Erin's Lovely Home-0
T:RVW2/1/34 Erin's Lovely Home-0
T:doubtful Sung by a gipsy at Hooton Roberts Sept. 1907 (3 of 3)
T:Transcribed by Simon Furey and Lewis Jones
C:Transcribed by Simon Furey and Lewis Jones
L:1/8
Q:1/4=100
M:4/4
K:G
V:1 treble 
V:1
"^(editorial suggestion)" Bc | d2 e2 c2 d2 | d4 G2 D2 |[M:3/4] EF G3 G |[M:4/4] G6 BA | %5
 G2 G2 B2 c2 | g4 ef g2 | d2 dc c2 Bc | d6 d2 | G2 G2 B2 c2 | d2 g2 ef g2 |"^?" e2 d2 B2 c2 | %12
 d6 Bc | d2 e2 c2 d2 | c2 dB cB G2 | EG GA G2 |] %16

